X:1
T: Cape Cod
C:
R:Reel
Q: 232
K:G
M:4/4
L:1/8
|:BG Bd cB ce|ge dB AB GD|BG Bd cB ce|ge dB A2 G2|
BG Bd cB ce|ge dB AB GD|BG Bd cB ce|ge dB A2 G2:|
|:g2 z2 B2 z2|gd ef gf ge|dB GB cB ce|ge dB A2 G2|
g2 z2 B2 z2|gd ef gf ge|dg ba gf ge|1de fa g2 G,2:|2de fa g2 g2||
